svgs/thin/arrows-minimize.svg

<svg xmlns="http://www.w3.org/2000/svg" viewBox="0 0 512 512"><!--! Font Awesome Pro 6.3.0 by @fontawesome - https://fontawesome.com License - https://fontawesome.com/license (Commercial License) Copyright 2023 Fonticons, Inc. --><path d="M45.77 477.5l162.3-162.3v140.7c0 4.42 3.58 8 7.998 8c4.42 0 7.943-3.517 7.943-7.942L224.1 295.9c0-4.416-3.576-7.998-8-7.998L56.06 287.9c-4.439 0-7.942 3.534-7.942 7.94c0 4.42 3.58 8 8 8h140.7l-162.3 162.3C26.97 473.7 38.29 485 45.77 477.5zM216.1 48.12c-4.418 0-7.998 3.58-7.998 8v140.7L45.76 34.46C38.27 26.96 26.98 38.31 34.45 45.77l162.3 162.3H56.11c-4.42 0-8 3.58-8 8c0 4.404 3.504 7.94 7.945 7.94l160.1 .0578c4.416 0 8-3.574 8-7.998L224.1 56.06C224.1 51.64 220.5 48.12 216.1 48.12zM295.9 463.9c4.418 0 7.998-3.58 7.998-8V315.2l162.3 162.3c7.486 7.488 18.79-3.832 11.31-11.31l-162.3-162.3h140.7c4.42 0 8-3.58 8-8c0-4.402-3.502-7.94-7.943-7.94l-160.1-.0585c-4.416 0-8 3.574-8 7.998l.0567 160.1C287.9 460.4 291.5 463.9 295.9 463.9zM295.9 224.1l160.1-.0576c4.439 0 7.945-3.532 7.945-7.94c0-4.42-3.58-8-8-8h-140.7l162.3-162.3c7.469-7.465-3.816-18.81-11.31-11.31l-162.3 162.3V56.12c0-4.42-3.58-8-7.998-8c-4.42 0-7.945 3.519-7.945 7.942l-.0549 160.1C287.9 220.5 291.5 224.1 295.9 224.1z"/></svg>

<svg xmlns="http://www.w3.org/2000/svg" viewBox="0 0 512 512"><!-- Font Awesome Pro 6.0.0-alpha2 by @fontawesome - https://fontawesome.com License - https://fontawesome.com/license (Commercial License) --><path d="M45.769 477.543L208.117 315.195V455.885C208.117 460.305 211.697 463.885 216.115 463.885C220.535 463.885 224.115 460.31 224.115 455.885V295.883C224.115 291.467 220.539 287.885 216.115 287.885H56.115C51.676 287.885 48.115 291.477 48.115 295.883C48.115 300.303 51.695 303.883 56.115 303.883H196.803L34.457 466.228C26.97 473.717 38.289 485.025 45.769 477.543ZM216.11 48.116C211.692 48.116 208.112 51.696 208.112 56.116V196.805L45.764 34.457C38.268 26.961 26.983 38.307 34.452 45.77L196.797 208.118H56.11C51.69 208.118 48.11 211.698 48.11 216.118C48.11 220.522 51.668 224.116 56.11 224.116H216.11C220.526 224.116 224.11 220.541 224.11 216.118V56.116C224.11 51.696 220.534 48.116 216.11 48.116ZM295.887 463.883C300.305 463.883 303.885 460.303 303.885 455.883V315.194L466.232 477.541C473.719 485.03 485.025 473.709 477.545 466.227L315.199 303.881H455.887C460.307 303.881 463.887 300.301 463.887 295.881C463.887 291.479 460.328 287.883 455.887 287.883H295.887C291.471 287.883 287.887 291.457 287.887 295.881V455.883C287.887 460.303 291.463 463.883 295.887 463.883ZM295.89 224.115H455.89C460.33 224.115 463.89 220.525 463.89 216.117C463.89 211.697 460.31 208.117 455.89 208.117H315.203L477.548 45.769C485.017 38.305 473.732 26.963 466.236 34.457L303.888 196.805V56.115C303.888 51.695 300.308 48.115 295.89 48.115C291.47 48.115 287.89 51.691 287.89 56.115V216.117C287.89 220.535 291.466 224.115 295.89 224.115Z"/></svg>
